icons/svg/16x16/phone/filled.svg

<svg width="16" height="16" fill="none" xmlns="http://www.w3.org/2000/svg">
  <path fill-rule="evenodd" clip-rule="evenodd" d="M14 10h-3a1 1 0 00-1 1v1.932C6.097 12.444 4 9.135 4 6h2a1 1 0 001-1V2a1 1 0 00-1-1H4a2 2 0 00-2 2v3c0 4.155 2.971 8.443 8 8.949V15h3a2 2 0 002-2v-2a1 1 0 00-1-1z" fill="#000"/>
</svg>

<svg xmlns="http://www.w3.org/2000/svg" width="16" height="16" viewBox="0 0 16 16">
  <path fill-rule="evenodd" d="M14,10 L11,10 C10.448,10 10,10.447 10,11 L10,12.932 C6.097,12.444 4,9.135 4,6 L6,6 C6.552,6 7,5.553 7,5 L7,2 C7,1.447 6.552,1 6,1 L4,1 C2.896,1 2,1.896 2,3 L2,6 C2,10.155 4.971,14.443 10,14.949 L10,15 L13,15 C14.104,15 15,14.104 15,13 L15,11 C15,10.447 14.552,10 14,10"/>
</svg>
